X: 1
T: Pepper Plant, The
M: 2/4
L: 1/8
R: polka
K: Gmaj
|:B>A|GE ED|EG G>A|BA GE|c2 B>A|
GE ED|EG G>B|dB AF|G2:|
|:GB/c/|dg dA/B/|ce dB|cf fe|f3 a|
gd BG|e2 d>c|BG AF|DG:|&quot;fine&quot;G2|
